azure-docs/api_speaker_recognition.svg

<?xml version="1.0" encoding="UTF-8"?>
<svg width="512px" height="512px" viewBox="0 0 512 512" version="1.1" xmlns="http://www.w3.org/2000/svg" xmlns:xlink="http://www.w3.org/1999/xlink">
    <!-- Generator: Sketch 46.2 (44496) - http://www.bohemiancoding.com/sketch -->
    <title>speakerRecognition-wht-bluBG-512p</title>
    <desc>Created with Sketch.</desc>
    <defs></defs>
    <g id="PRODUCTION-ICONS" stroke="none" stroke-width="1" fill="none" fill-rule="evenodd">
        <g id="speakerRecognition-wht-bluBG-512p">
            <g id="Speaker-Recognition-API">
                <rect id="Rectangle-3-Copy-10" fill="#0063B1" x="0" y="0" width="512" height="512"></rect>
                <path d="M155.208249,257.236196 L202.039182,304.129707 L332.530916,173.467307 L348.630471,189.549796 L202.039182,336.328818 L139.108693,273.312996 L155.208249,257.236196 Z M368.797013,361.586347 C357.749191,361.233636 348.260124,353.775502 346.570524,343.194169 C344.49408,331.287324 353.328924,320.222436 366.197191,318.30528 C378.934613,316.621369 392.969102,322.992924 396.348302,339.462258 C399.596658,363.270258 381.011058,382.86848 353.072924,385.758436 C352.031858,385.877902 351.901013,385.27488 351.901013,385.27488 L350.729102,377.822436 C350.729102,377.822436 350.603947,377.099947 351.377636,376.861013 C359.307947,374.699236 366.197191,370.967324 368.797013,361.586347 Z M306.219236,361.586347 C295.171413,361.233636 285.682347,353.775502 283.992747,343.194169 C281.916302,331.287324 290.751147,320.222436 303.619413,318.30528 C316.356836,316.621369 330.391324,322.992924 333.770524,339.462258 C337.01888,363.270258 318.43328,382.86848 290.495147,385.758436 C289.45408,385.877902 289.323236,385.27488 289.323236,385.27488 L288.151324,377.822436 C288.151324,377.822436 288.026169,377.099947 288.799858,376.861013 C296.730169,374.699236 303.619413,370.967324 306.219236,361.586347 Z M204.274916,155.030756 C215.322738,155.383467 224.811804,162.8416 226.501404,173.422933 C228.577849,185.329778 219.743004,196.394667 206.874738,198.311822 C194.137316,199.995733 180.102827,193.624178 176.723627,177.154844 C173.475271,153.346844 192.060871,133.748622 219.999004,130.858667 C221.040071,130.7392 221.170916,131.342222 221.170916,131.342222 L222.342827,138.794667 C222.342827,138.794667 222.467982,139.517156 221.694293,139.756089 C213.763982,141.917867 206.874738,145.649778 204.274916,155.030756 Z M141.697138,155.030756 C152.74496,155.383467 162.234027,162.8416 163.923627,173.422933 C166.000071,185.329778 157.165227,196.394667 144.29696,198.311822 C131.559538,199.995733 117.525049,193.624178 114.145849,177.154844 C110.897493,153.346844 129.483093,133.748622 157.421227,130.858667 C158.462293,130.7392 158.593138,131.342222 158.593138,131.342222 L159.765049,138.794667 C159.765049,138.794667 159.890204,139.517156 159.116516,139.756089 C151.186204,141.917867 144.29696,145.649778 141.697138,155.030756 Z" id="Combined-Shape" fill="#FFFFFF"></path>
            </g>
        </g>
    </g>
</svg>

<svg width="512" height="512" xmlns="http://www.w3.org/2000/svg"><g fill="none" fill-rule="evenodd"><path fill="#0063B1" d="M0 0h512v512H0z"/><path d="M155.208 257.236l46.831 46.894 130.492-130.663 16.1 16.083-146.592 146.779-62.93-63.016 16.1-16.077zm213.589 104.35c-11.048-.352-20.537-7.81-22.226-18.392-2.077-11.907 6.758-22.972 19.626-24.889 12.738-1.684 26.772 4.688 30.151 21.157 3.249 23.808-15.337 43.406-43.275 46.296-1.041.12-1.172-.483-1.172-.483l-1.172-7.453s-.125-.722.649-.961c7.93-2.162 14.82-5.894 17.419-15.275zm-62.578 0c-11.048-.352-20.537-7.81-22.226-18.392-2.077-11.907 6.758-22.972 19.626-24.889 12.738-1.684 26.772 4.688 30.152 21.157 3.248 23.808-15.338 43.406-43.276 46.296-1.04.12-1.172-.483-1.172-.483l-1.172-7.453s-.125-.722.649-.961c7.93-2.162 14.82-5.894 17.42-15.275zM204.275 155.031c11.048.352 20.537 7.81 22.226 18.392 2.077 11.907-6.758 22.972-19.626 24.889-12.738 1.684-26.772-4.688-30.151-21.157-3.249-23.808 15.337-43.406 43.275-46.296 1.041-.12 1.172.483 1.172.483l1.172 7.453s.125.722-.649.961c-7.93 2.162-14.82 5.894-17.42 15.275zm-62.578 0c11.048.352 20.537 7.81 22.227 18.392 2.076 11.907-6.759 22.972-19.627 24.889-12.737 1.684-26.772-4.688-30.151-21.157-3.249-23.808 15.337-43.406 43.275-46.296 1.041-.12 1.172.483 1.172.483l1.172 7.453s.125.722-.648.961c-7.93 2.162-14.82 5.894-17.42 15.275z" fill="#FFF"/></g></svg>
